packages/icons/src/components/Logo/assets/dark/oracle-linux.svg

<svg width="20" height="20" viewBox="0 0 20 20" fill="none" xmlns="http://www.w3.org/2000/svg">
<path d="M8.32529 10.3745H9.59958L8.92578 9.29967L7.68913 11.243H7.12631L8.63049 8.90863C8.69589 8.81431 8.80488 8.75732 8.92578 8.75732C9.0427 8.75732 9.1517 8.81234 9.21512 8.9047L10.7252 11.243H10.1624L9.89685 10.8088H8.6067L8.32529 10.3745ZM14.1716 10.8088V8.78091H13.694V11.0072C13.694 11.0682 13.7177 11.1271 13.7633 11.1723C13.8089 11.2175 13.8703 11.243 13.9377 11.243H16.1157L16.3971 10.8088H14.1716ZM6.27018 10.4453C6.73393 10.4453 7.11047 10.0739 7.11047 9.61406C7.11047 9.15425 6.73393 8.78091 6.27018 8.78091H4.18078V11.243H4.6582V9.21517H6.23847C6.46044 9.21517 6.6388 9.39398 6.6388 9.61406C6.6388 9.83414 6.46044 10.013 6.23847 10.013L4.89205 10.011L6.31774 11.243H7.01137L6.05219 10.4453L6.27018 10.4453ZM1.2418 11.243C0.556286 11.243 0 10.6928 0 10.013C0 9.33307 0.556293 8.78091 1.2418 8.78091H2.68512C3.37082 8.78091 3.92672 9.33307 3.92672 10.013C3.92672 10.6928 3.37082 11.243 2.68512 11.243H1.2418ZM2.65302 10.8088C3.09715 10.8088 3.45684 10.4531 3.45684 10.013C3.45684 9.5728 3.09715 9.21517 2.65302 9.21517H1.2737C0.829779 9.21517 0.469877 9.5728 0.469877 10.013C0.469877 10.4531 0.829779 10.8088 1.2737 10.8088H2.65302ZM11.7221 11.243C11.0364 11.243 10.4795 10.6928 10.4795 10.013C10.4795 9.33307 11.0364 8.78091 11.7221 8.78091H13.4363L13.1569 9.21517H11.7538C11.3099 9.21517 10.9492 9.5728 10.9492 10.013C10.9492 10.4531 11.3099 10.8088 11.7538 10.8088H13.476L13.1945 11.243H11.7221ZM17.5624 10.8088C17.1958 10.8088 16.8846 10.5651 16.7895 10.2291H18.8307L19.1122 9.79484H16.7895C16.8846 9.46079 17.1958 9.21517 17.5624 9.21517H18.9635L19.2469 8.78091H17.5307C16.845 8.78091 16.2881 9.33307 16.2881 10.013C16.2881 10.6928 16.845 11.243 17.5307 11.243H19.0032L19.2846 10.8088H17.5624ZM19.5026 9.04225C19.5025 9.01384 19.5081 8.9857 19.519 8.95943C19.5299 8.93317 19.546 8.90931 19.5662 8.88922C19.5865 8.86914 19.6106 8.85322 19.637 8.84238C19.6635 8.83155 19.6919 8.82602 19.7206 8.8261C19.8434 8.8261 19.9405 8.92238 19.9405 9.04225C19.9405 9.16408 19.8434 9.26036 19.7206 9.26036C19.5997 9.26036 19.5026 9.16408 19.5026 9.04225ZM19.7206 9.32128C19.8751 9.32128 20 9.19748 20 9.04421C20 8.89094 19.8751 8.76715 19.7206 8.76715C19.568 8.76715 19.4431 8.89094 19.4431 9.04421C19.4431 9.19748 19.568 9.32128 19.7206 9.32128ZM19.6948 8.87915C19.7384 8.87915 19.7562 8.88112 19.7761 8.88898C19.8315 8.90666 19.8375 8.95579 19.8375 8.97544C19.8375 8.97937 19.8375 8.98919 19.8335 9.00098C19.8316 9.01277 19.8236 9.03635 19.7959 9.05404C19.7919 9.056 19.7899 9.05797 19.782 9.0619L19.8534 9.18962H19.784L19.7206 9.07172H19.677V9.18962H19.6155V8.87915H19.6948ZM19.7166 9.02063C19.7364 9.01867 19.7562 9.01867 19.7681 9.00098C19.7741 8.99312 19.7761 8.98526 19.7761 8.97347C19.7761 8.95775 19.7661 8.944 19.7523 8.93614C19.7384 8.93024 19.7245 8.93024 19.6948 8.93024H19.677V9.02063H19.7166Z" fill="#F80000"/>
</svg>

<svg xmlns="http://www.w3.org/2000/svg" width="20" height="20" fill="none" viewBox="0 0 20 20">
    <path fill="#f80000" d="M8.325 10.375H9.6L8.926 9.3l-1.237 1.943h-.563L8.63 8.909a.36.36 0 0 1 .296-.152.35.35 0 0 1 .29.148l1.51 2.338h-.564l-.265-.434h-1.29zm5.847.434V8.78h-.478v2.226c0 .061.024.12.07.165a.24.24 0 0 0 .174.071h2.178l.281-.434zm-7.902-.364c.464 0 .84-.371.84-.83a.837.837 0 0 0-.84-.834H4.18v2.462h.478V9.215h1.58a.4.4 0 1 1 0 .798l-1.346-.002 1.426 1.232h.693l-.959-.798zm-5.028.798c-.686 0-1.242-.55-1.242-1.23s.556-1.232 1.242-1.232h1.443c.686 0 1.242.552 1.242 1.232s-.556 1.23-1.242 1.23zm1.411-.434a.8.8 0 0 0 .804-.796c0-.44-.36-.798-.804-.798h-1.38a.8.8 0 0 0-.803.798.8.8 0 0 0 .804.796zm9.07.434c-.687 0-1.244-.55-1.244-1.23s.557-1.232 1.243-1.232h1.714l-.28.434h-1.402a.8.8 0 0 0-.805.798.8.8 0 0 0 .805.796h1.722l-.282.434zm5.84-.434a.8.8 0 0 1-.773-.58h2.04l.282-.434H16.79a.804.804 0 0 1 .772-.58h1.401l.284-.434H17.53c-.686 0-1.243.552-1.243 1.232s.557 1.23 1.243 1.23h1.472l.282-.434zm1.94-1.767a.21.21 0 0 1 .134-.2.2.2 0 0 1 .084-.016.217.217 0 1 1 0 .434.217.217 0 0 1-.218-.218m.218.28a.278.278 0 1 0-.277-.277c0 .152.124.276.277.276m-.026-.443a.2.2 0 0 1 .081.01.09.09 0 0 1 .061.086L19.834 9a.08.08 0 0 1-.038.053l-.014.008.071.128h-.069l-.063-.118h-.044v.118h-.061v-.31zm.022.142c.02-.002.04-.002.051-.02a.04.04 0 0 0 .008-.028q-.002-.024-.024-.037c-.014-.006-.027-.006-.057-.006h-.018v.09z"/>
</svg>
